static/assets/images/networks/ethereum.svg

<svg width="256" height="256" viewBox="0 0 256 256" fill="none" xmlns="http://www.w3.org/2000/svg">
<path d="M256 128C256 161.948 242.514 194.505 218.51 218.51C194.505 242.514 161.948 256 128 256C94.0523 256 61.495 242.514 37.4903 218.51C13.4857 194.505 0 161.948 0 128C0 94.0523 13.4857 61.495 37.4903 37.4903C61.495 13.4857 94.0523 0 128 0C161.948 0 194.505 13.4857 218.51 37.4903C242.514 61.495 256 94.0523 256 128Z" fill="#E6E6E6"/>
<path d="M127.871 23.04L126.557 27.8031V166.59L127.871 167.904L192.255 129.963L127.871 23.04Z" fill="#343434"/>
<path d="M127.872 23.04L63.488 129.963L127.872 167.904V100.563V23.04Z" fill="#8C8C8C"/>
<path d="M127.872 180.222L127.051 181.043V230.481L127.872 232.78L192.256 142.117L127.872 180.222Z" fill="#3C3C3B"/>
<path d="M127.872 232.78V180.222L63.488 142.117L127.872 232.78Z" fill="#8C8C8C"/>
<path d="M127.872 167.904L192.256 129.963L127.872 100.563V167.904Z" fill="#141414"/>
<path d="M63.488 129.963L127.872 167.904V100.563L63.488 129.963Z" fill="#393939"/>
</svg>

<svg xmlns="http://www.w3.org/2000/svg" fill="none" viewBox="0 0 256 256"><path fill="#E6E6E6" d="M256 128a128 128 0 0 1-37.49 90.51 128.003 128.003 0 0 1-181.02 0A128.001 128.001 0 1 1 256 128"/><path fill="#343434" d="m127.871 23.04-1.314 4.763V166.59l1.314 1.314 64.384-37.941z"/><path fill="#8C8C8C" d="M127.872 23.04 63.488 129.963l64.384 37.941z"/><path fill="#3C3C3B" d="m127.872 180.222-.821.821v49.438l.821 2.299 64.384-90.663z"/><path fill="#8C8C8C" d="M127.872 232.78v-52.558l-64.384-38.105z"/><path fill="#141414" d="m127.872 167.904 64.384-37.941-64.384-29.4z"/><path fill="#393939" d="m63.488 129.963 64.384 37.941v-67.341z"/></svg>
